apps/scalable/font/font.svg

<svg xmlns="http://www.w3.org/2000/svg" style="isolation:isolate" width="256" height="256"><defs><filter id="a" width="270.648" height="254.338" x="-7.32" y="2.95" filterUnits="userSpaceOnUse"><feGaussianBlur xmlns="http://www.w3.org/2000/svg" in="SourceGraphic" stdDeviation="4.294"/><feOffset xmlns="http://www.w3.org/2000/svg" dy="4" result="pf_100_offsetBlur"/><feFlood xmlns="http://www.w3.org/2000/svg" flood-opacity=".4"/><feComposite xmlns="http://www.w3.org/2000/svg" in2="pf_100_offsetBlur" operator="in" result="pf_100_dropShadow"/><feBlend xmlns="http://www.w3.org/2000/svg" in="SourceGraphic" in2="pf_100_dropShadow"/></filter></defs><g filter="url(#a)"><linearGradient id="b" x1=".233" x2=".933" y1="-.071" y2=".995" gradientTransform="matrix(244.648 0 0 228.338 5.676 11.947)" gradientUnits="userSpaceOnUse"><stop offset="0%" stop-color="#e8e8e8"/><stop offset="100%" stop-color="#f5f5f5"/></linearGradient><path fill="url(#b)" d="M165.685 11.947c74.055 0 84.639 10.557 84.639 84.544v59.251c0 73.986-10.584 84.543-84.639 84.543h-75.37c-74.055 0-84.639-10.557-84.639-84.543V96.491c0-73.987 10.584-84.544 84.639-84.544h75.37z"/></g><g opacity=".4"><linearGradient id="c" x1=".517" x2=".517" y2="1"><stop offset="0%" stop-color="#fff"/><stop offset="12.5%" stop-opacity=".098" stop-color="#fff"/><stop offset="92.5%" stop-opacity=".098"/><stop offset="100%" stop-opacity=".498"/></linearGradient><path fill="none" stroke="url(#c)" stroke-linecap="round" stroke-linejoin="round" stroke-width="4.077" d="M165.685 11.947c74.055 0 84.639 10.557 84.639 84.544v59.251c0 73.986-10.584 84.543-84.639 84.543h-75.37c-74.055 0-84.639-10.557-84.639-84.543V96.491c0-73.987 10.584-84.544 84.639-84.544h75.37z" vector-effect="non-scaling-stroke"/></g><path fill="#FFF" d="M95.369 47.47c-4.224 0-7.856.294-10.897.886-2.956.591-5.153 1.224-6.589 1.9l1.14 7.223c1.098-.423 2.83-.971 5.195-1.647 2.365-.675 5.957-1.014 10.771-1.014 3.379 0 6.081.55 8.109 1.648 2.111 1.014 3.717 2.408 4.815 4.182 1.183 1.689 1.942 3.632 2.28 5.828.338 2.112.506 4.307.506 6.587v4.056c-.338-.169-.971-.338-1.9-.507-.845-.253-1.9-.464-3.167-.633a25.85 25.85 0 0 0-3.801-.507 27.8 27.8 0 0 0-3.674-.254c-3.97 0-7.645.38-11.023 1.14-3.379.76-6.294 1.986-8.744 3.676-2.45 1.605-4.35 3.673-5.701 6.207-1.352 2.534-2.028 5.575-2.028 9.123 0 3.717.591 6.886 1.773 9.504 1.267 2.535 2.956 4.646 5.068 6.335 2.196 1.605 4.732 2.787 7.604 3.547 2.956.76 6.166 1.142 9.629 1.142 2.703 0 5.322-.128 7.856-.382 2.619-.169 4.984-.422 7.096-.76 2.111-.338 3.969-.632 5.574-.886 1.605-.338 2.831-.634 3.676-.888V71.671c0-3.463-.423-6.675-1.267-9.631-.845-2.957-2.197-5.49-4.055-7.602-1.859-2.196-4.309-3.885-7.35-5.068-2.956-1.267-6.588-1.9-10.896-1.9zm46.942 33.03v89.649h9.613l2.998-3.869c5.993 3.496 11.986 5.118 18.104 5.118 17.98 0 28.592-13.36 28.592-31.589 0-18.23-7.366-31.091-25.846-31.091-7.117 0-12.985 1.75-18.104 4.372V80.5h-15.357zm-44.408 1.813c3.547 0 6.335.254 8.362.761 2.027.422 3.505.845 4.434 1.267v23.062c-1.689.337-3.758.632-6.207.885-2.366.169-5.153.254-8.363.254-2.618 0-4.983-.211-7.095-.633-2.027-.507-3.802-1.268-5.322-2.282-1.436-1.013-2.577-2.363-3.422-4.053-.76-1.689-1.14-3.76-1.14-6.209 0-2.788.591-5.027 1.774-6.717a12.07 12.07 0 0 1 4.561-3.926c1.859-1.013 3.887-1.649 6.083-1.902a41.648 41.648 0 0 1 6.335-.506v-.001zm74.123 38.891c10.738 0 14.235 7.742 14.235 19.478 0 11.737-5.494 18.605-15.732 18.605-4.995 0-9.24-1.248-12.861-4.119v-30.591c2.996-1.249 8.864-3.373 14.358-3.373zm-73.839 17.059c-6.38 0-12.253 1-17.616 2.998-5.364 1.999-9.991 4.874-13.882 8.625-3.857 3.751-6.873 8.343-9.047 13.777-2.173 5.434-3.26 11.569-3.26 18.405 0 4.277.667 8.168 1.999 11.673 1.333 3.506 3.295 6.503 5.889 8.992 2.595 2.489 5.802 4.419 9.624 5.786 3.821 1.367 8.239 2.05 13.252 2.05a60.61 60.61 0 0 0 7.1-.42 84.857 84.857 0 0 0 6.94-1 89.602 89.602 0 0 0 6.363-1.526 74.943 74.943 0 0 0 5.522-1.734l3.207-16.564h-3.417l-3.787 10.57c-1.087.841-2.384 1.647-3.892 2.418-1.507.737-3.172 1.402-4.995 1.998a38.711 38.711 0 0 1-5.784 1.42 37.962 37.962 0 0 1-6.363.527c-3.751 0-6.959-.578-9.623-1.735-2.665-1.157-4.855-2.752-6.573-4.786-1.718-2.068-2.981-4.524-3.787-7.363-.771-2.84-1.158-5.924-1.158-9.254 0-6.171.826-11.762 2.474-16.776 1.647-5.013 3.925-9.29 6.835-12.831 2.944-3.54 6.433-6.257 10.464-8.15 4.032-1.928 8.433-2.893 13.2-2.893 3.366 0 6.591.421 9.676 1.263 3.085.806 5.713 1.962 7.886 3.47v9.151h3.42l2.366-15.409c-3.12-.701-6.538-1.314-10.254-1.84-3.716-.561-7.976-.842-12.779-.842z"/><path fill="#5D5D5D" d="M95.369 45.431c-4.224 0-7.856.295-10.897.886-2.956.591-5.153 1.225-6.589 1.9l1.14 7.223c1.098-.422 2.83-.971 5.195-1.646 2.365-.676 5.957-1.015 10.771-1.015 3.379 0 6.081.55 8.109 1.648 2.111 1.014 3.717 2.408 4.815 4.182 1.183 1.69 1.942 3.632 2.28 5.829.338 2.111.506 4.306.506 6.587v4.055c-.338-.169-.971-.338-1.9-.507-.845-.253-1.9-.464-3.167-.633a25.853 25.853 0 0 0-3.801-.506 27.806 27.806 0 0 0-3.674-.255c-3.97 0-7.645.38-11.023 1.14-3.379.76-6.294 1.986-8.744 3.676-2.45 1.605-4.35 3.673-5.701 6.208-1.352 2.534-2.028 5.575-2.028 9.122 0 3.717.591 6.886 1.773 9.505 1.267 2.534 2.956 4.645 5.068 6.335 2.196 1.604 4.732 2.786 7.604 3.546 2.956.76 6.166 1.142 9.629 1.142 2.703 0 5.322-.128 7.856-.381 2.619-.169 4.984-.423 7.096-.761 2.111-.338 3.969-.632 5.574-.886 1.605-.337 2.831-.634 3.676-.887V69.632c0-3.463-.423-6.674-1.267-9.631-.845-2.956-2.197-5.49-4.055-7.602-1.859-2.196-4.309-3.885-7.35-5.067-2.956-1.267-6.588-1.901-10.896-1.901zm46.942 33.03v89.65h9.613l2.998-3.87c5.993 3.496 11.986 5.118 18.104 5.118 17.98 0 28.592-13.359 28.592-31.589 0-18.23-7.366-31.091-25.846-31.091-7.117 0-12.985 1.75-18.104 4.372v-32.59h-15.357zm-44.408 1.814c3.547 0 6.335.253 8.362.76 2.027.423 3.505.845 4.434 1.267v23.062c-1.689.338-3.758.632-6.207.885-2.366.169-5.153.255-8.363.255-2.618 0-4.983-.211-7.095-.634-2.027-.507-3.802-1.268-5.322-2.281-1.436-1.014-2.577-2.364-3.422-4.054-.76-1.689-1.14-3.76-1.14-6.209 0-2.788.591-5.027 1.774-6.716a12.052 12.052 0 0 1 4.561-3.926c1.859-1.014 3.887-1.649 6.083-1.903a41.648 41.648 0 0 1 6.335-.506zm74.123 38.89c10.738 0 14.235 7.742 14.235 19.479 0 11.737-5.494 18.605-15.732 18.605-4.995 0-9.24-1.248-12.861-4.12v-30.591c2.996-1.248 8.864-3.373 14.358-3.373zm-73.839 17.06c-6.38 0-12.253.999-17.616 2.998-5.364 1.998-9.991 4.873-13.882 8.624-3.857 3.751-6.873 8.344-9.047 13.777-2.173 5.434-3.26 11.57-3.26 18.406 0 4.277.667 8.167 1.999 11.673 1.333 3.505 3.295 6.502 5.889 8.991 2.595 2.49 5.802 4.419 9.624 5.786 3.821 1.368 8.239 2.05 13.252 2.05 2.349 0 4.716-.139 7.1-.419a84.853 84.853 0 0 0 6.94-1.001 89.613 89.613 0 0 0 6.363-1.525 74.921 74.921 0 0 0 5.522-1.735l3.207-16.564h-3.417l-3.787 10.57c-1.087.841-2.384 1.648-3.892 2.419a39.007 39.007 0 0 1-4.995 1.997 38.711 38.711 0 0 1-5.784 1.42 37.962 37.962 0 0 1-6.363.527c-3.751 0-6.959-.578-9.623-1.735-2.665-1.157-4.855-2.752-6.573-4.785-1.718-2.069-2.981-4.525-3.787-7.364-.771-2.84-1.158-5.924-1.158-9.254 0-6.17.826-11.762 2.474-16.775 1.647-5.014 3.925-9.291 6.835-12.831 2.944-3.541 6.433-6.258 10.464-8.151 4.032-1.928 8.433-2.893 13.2-2.893 3.366 0 6.591.422 9.676 1.263 3.085.806 5.713 1.963 7.886 3.47v9.151h3.42l2.366-15.409c-3.12-.701-6.538-1.314-10.254-1.84-3.716-.561-7.976-.841-12.779-.841z"/></svg>

<svg xmlns="http://www.w3.org/2000/svg" style="isolation:isolate" width="256" height="256" viewBox="0 0 256 256">
 <defs>
  <filter id="hi2FZHqGcnNJ2LcKT3DZTLg56aqjm5VN" width="270.648" height="254.338" x="-7.32" y="2.95" filterUnits="userSpaceOnUse">
   <feGaussianBlur xmlns="http://www.w3.org/2000/svg" in="SourceGraphic" stdDeviation="4.294"/>
   <feOffset xmlns="http://www.w3.org/2000/svg" dx="0" dy="4" result="pf_100_offsetBlur"/>
   <feFlood xmlns="http://www.w3.org/2000/svg" flood-opacity=".4"/>
   <feComposite xmlns="http://www.w3.org/2000/svg" in2="pf_100_offsetBlur" operator="in" result="pf_100_dropShadow"/>
   <feBlend xmlns="http://www.w3.org/2000/svg" in="SourceGraphic" in2="pf_100_dropShadow" mode="normal"/>
  </filter>
 </defs>
 <g filter="url(#hi2FZHqGcnNJ2LcKT3DZTLg56aqjm5VN)">
  <linearGradient id="_lgradient_148" x1=".233" x2=".933" y1="-.071" y2=".995" gradientTransform="matrix(244.648,0,0,228.338,5.676,11.947)" gradientUnits="userSpaceOnUse">
   <stop offset="0%" style="stop-color:rgb(232,232,232)"/>
   <stop offset="100%" style="stop-color:rgb(245,245,245)"/>
  </linearGradient>
  <path fill="url(#_lgradient_148)" d="M 165.685 11.947 C 239.74 11.947 250.324 22.504 250.324 96.491 L 250.324 155.742 C 250.324 229.728 239.74 240.285 165.685 240.285 L 90.315 240.285 C 16.26 240.285 5.676 229.728 5.676 155.742 L 5.676 96.491 C 5.676 22.504 16.26 11.947 90.315 11.947 L 165.685 11.947 Z"/>
 </g>
 <g opacity=".4">
  <linearGradient id="_lgradient_149" x1=".517" x2=".517" y1="0" y2="1">
   <stop offset="0%" style="stop-color:rgb(255,255,255)"/>
   <stop offset="12.5%" stop-opacity=".098" style="stop-color:rgb(255,255,255)"/>
   <stop offset="92.5%" stop-opacity=".098" style="stop-color:rgb(0,0,0)"/>
   <stop offset="100%" stop-opacity=".498" style="stop-color:rgb(0,0,0)"/>
  </linearGradient>
  <path fill="none" stroke="url(#_lgradient_149)" stroke-linecap="round" stroke-linejoin="round" stroke-width="4.077" d="M 165.685 11.947 C 239.74 11.947 250.324 22.504 250.324 96.491 L 250.324 155.742 C 250.324 229.728 239.74 240.285 165.685 240.285 L 90.315 240.285 C 16.26 240.285 5.676 229.728 5.676 155.742 L 5.676 96.491 C 5.676 22.504 16.26 11.947 90.315 11.947 L 165.685 11.947 Z" vector-effect="non-scaling-stroke"/>
 </g>
 <g>
  <path fill="#FFFFFF" d="M 95.369 47.47 C 91.145 47.47 87.513 47.764 84.472 48.356 C 81.516 48.947 79.319 49.58 77.883 50.256 L 79.023 57.479 C 80.121 57.056 81.853 56.508 84.218 55.832 C 86.583 55.157 90.175 54.818 94.989 54.818 C 98.368 54.818 101.07 55.368 103.098 56.466 C 105.209 57.48 106.815 58.874 107.913 60.648 C 109.096 62.337 109.855 64.28 110.193 66.476 C 110.531 68.588 110.699 70.783 110.699 73.063 L 110.699 77.119 C 110.361 76.95 109.728 76.781 108.799 76.612 C 107.954 76.359 106.899 76.148 105.632 75.979 C 104.449 75.725 103.182 75.557 101.831 75.472 C 100.564 75.303 99.339 75.218 98.157 75.218 C 94.187 75.218 90.512 75.598 87.134 76.358 C 83.755 77.118 80.84 78.344 78.39 80.034 C 75.94 81.639 74.04 83.707 72.689 86.241 C 71.337 88.775 70.661 91.816 70.661 95.364 C 70.661 99.081 71.252 102.25 72.434 104.868 C 73.701 107.403 75.39 109.514 77.502 111.203 C 79.698 112.808 82.234 113.99 85.106 114.75 C 88.062 115.51 91.272 115.892 94.735 115.892 C 97.438 115.892 100.057 115.764 102.591 115.51 C 105.21 115.341 107.575 115.088 109.687 114.75 C 111.798 114.412 113.656 114.118 115.261 113.864 C 116.866 113.526 118.092 113.23 118.937 112.976 L 118.937 71.671 C 118.937 68.208 118.514 64.996 117.67 62.04 C 116.825 59.083 115.473 56.55 113.615 54.438 C 111.756 52.242 109.306 50.553 106.265 49.37 C 103.309 48.103 99.677 47.47 95.369 47.47 L 95.369 47.47 Z M 142.311 80.5 L 142.311 170.149 L 151.924 170.149 L 154.922 166.28 C 160.915 169.776 166.908 171.398 173.026 171.398 C 191.006 171.398 201.618 158.038 201.618 139.809 C 201.618 121.579 194.252 108.718 175.772 108.718 C 168.655 108.718 162.787 110.468 157.668 113.09 L 157.668 80.5 L 142.311 80.5 Z M 97.903 82.313 C 101.45 82.313 104.238 82.567 106.265 83.074 C 108.292 83.496 109.77 83.919 110.699 84.341 L 110.699 107.403 C 109.01 107.74 106.941 108.035 104.492 108.288 C 102.126 108.457 99.339 108.542 96.129 108.542 C 93.511 108.542 91.146 108.331 89.034 107.909 C 87.007 107.402 85.232 106.641 83.712 105.627 C 82.276 104.614 81.135 103.264 80.29 101.574 C 79.53 99.885 79.15 97.814 79.15 95.365 C 79.15 92.577 79.741 90.338 80.924 88.648 C 82.106 86.959 83.627 85.652 85.485 84.722 C 87.344 83.709 89.372 83.073 91.568 82.82 C 93.764 82.482 95.875 82.314 97.903 82.314 L 97.903 82.313 Z M 172.026 121.204 C 182.764 121.204 186.261 128.946 186.261 140.682 C 186.261 152.419 180.767 159.287 170.529 159.287 C 165.534 159.287 161.289 158.039 157.668 155.168 L 157.668 124.577 C 160.664 123.328 166.532 121.204 172.026 121.204 L 172.026 121.204 Z M 98.187 138.263 C 91.807 138.263 85.934 139.263 80.571 141.261 C 75.207 143.26 70.58 146.135 66.689 149.886 C 62.832 153.637 59.816 158.229 57.642 163.663 C 55.469 169.097 54.382 175.232 54.382 182.068 C 54.382 186.345 55.049 190.236 56.381 193.741 C 57.714 197.247 59.676 200.244 62.27 202.733 C 64.865 205.222 68.072 207.152 71.894 208.519 C 75.715 209.886 80.133 210.569 85.146 210.569 C 87.495 210.569 89.862 210.43 92.246 210.149 C 94.63 209.904 96.942 209.569 99.186 209.149 C 101.429 208.693 103.551 208.184 105.549 207.623 C 107.582 207.063 109.423 206.484 111.071 205.889 L 114.278 189.325 L 110.861 189.325 L 107.074 199.895 C 105.987 200.736 104.69 201.542 103.182 202.313 C 101.675 203.05 100.01 203.715 98.187 204.311 C 96.399 204.907 94.471 205.381 92.403 205.731 C 90.335 206.082 88.214 206.258 86.04 206.258 C 82.289 206.258 79.081 205.68 76.417 204.523 C 73.752 203.366 71.562 201.771 69.844 199.737 C 68.126 197.669 66.863 195.213 66.057 192.374 C 65.286 189.534 64.899 186.45 64.899 183.12 C 64.899 176.949 65.725 171.358 67.373 166.344 C 69.02 161.331 71.298 157.054 74.208 153.513 C 77.152 149.973 80.641 147.256 84.672 145.363 C 88.704 143.435 93.105 142.47 97.872 142.47 C 101.238 142.47 104.463 142.891 107.548 143.733 C 110.633 144.539 113.261 145.695 115.434 147.203 L 115.434 156.354 L 118.854 156.354 L 121.22 140.945 C 118.1 140.244 114.682 139.631 110.966 139.105 C 107.25 138.544 102.99 138.263 98.187 138.263 L 98.187 138.263 Z"/>
  <path fill="#5D5D5D" d="M 95.369 45.431 C 91.145 45.431 87.513 45.726 84.472 46.317 C 81.516 46.908 79.319 47.542 77.883 48.217 L 79.023 55.44 C 80.121 55.018 81.853 54.469 84.218 53.794 C 86.583 53.118 90.175 52.779 94.989 52.779 C 98.368 52.779 101.07 53.329 103.098 54.427 C 105.209 55.441 106.815 56.835 107.913 58.609 C 109.096 60.299 109.855 62.241 110.193 64.438 C 110.531 66.549 110.699 68.744 110.699 71.025 L 110.699 75.08 C 110.361 74.911 109.728 74.742 108.799 74.573 C 107.954 74.32 106.899 74.109 105.632 73.94 C 104.449 73.687 103.182 73.518 101.831 73.434 C 100.564 73.265 99.339 73.179 98.157 73.179 C 94.187 73.179 90.512 73.559 87.134 74.319 C 83.755 75.079 80.84 76.305 78.39 77.995 C 75.94 79.6 74.04 81.668 72.689 84.203 C 71.337 86.737 70.661 89.778 70.661 93.325 C 70.661 97.042 71.252 100.211 72.434 102.83 C 73.701 105.364 75.39 107.475 77.502 109.165 C 79.698 110.769 82.234 111.951 85.106 112.711 C 88.062 113.471 91.272 113.853 94.735 113.853 C 97.438 113.853 100.057 113.725 102.591 113.472 C 105.21 113.303 107.575 113.049 109.687 112.711 C 111.798 112.373 113.656 112.079 115.261 111.825 C 116.866 111.488 118.092 111.191 118.937 110.938 L 118.937 69.632 C 118.937 66.169 118.514 62.958 117.67 60.001 C 116.825 57.045 115.473 54.511 113.615 52.399 C 111.756 50.203 109.306 48.514 106.265 47.332 C 103.309 46.065 99.677 45.431 95.369 45.431 L 95.369 45.431 Z M 142.311 78.461 L 142.311 168.111 L 151.924 168.111 L 154.922 164.241 C 160.915 167.737 166.908 169.359 173.026 169.359 C 191.006 169.359 201.618 156 201.618 137.77 C 201.618 119.54 194.252 106.679 175.772 106.679 C 168.655 106.679 162.787 108.429 157.668 111.051 L 157.668 78.461 L 142.311 78.461 Z M 97.903 80.275 C 101.45 80.275 104.238 80.528 106.265 81.035 C 108.292 81.458 109.77 81.88 110.699 82.302 L 110.699 105.364 C 109.01 105.702 106.941 105.996 104.492 106.249 C 102.126 106.418 99.339 106.504 96.129 106.504 C 93.511 106.504 91.146 106.293 89.034 105.87 C 87.007 105.363 85.232 104.602 83.712 103.589 C 82.276 102.575 81.135 101.225 80.29 99.535 C 79.53 97.846 79.15 95.775 79.15 93.326 C 79.15 90.538 79.741 88.299 80.924 86.61 C 82.106 84.92 83.627 83.613 85.485 82.684 C 87.344 81.67 89.372 81.035 91.568 80.781 C 93.764 80.443 95.875 80.275 97.903 80.275 L 97.903 80.275 Z M 172.026 119.165 C 182.764 119.165 186.261 126.907 186.261 138.644 C 186.261 150.381 180.767 157.249 170.529 157.249 C 165.534 157.249 161.289 156.001 157.668 153.129 L 157.668 122.538 C 160.664 121.29 166.532 119.165 172.026 119.165 Z M 98.187 136.225 C 91.807 136.225 85.934 137.224 80.571 139.223 C 75.207 141.221 70.58 144.096 66.689 147.847 C 62.832 151.598 59.816 156.191 57.642 161.624 C 55.469 167.058 54.382 173.194 54.382 180.03 C 54.382 184.307 55.049 188.197 56.381 191.703 C 57.714 195.208 59.676 198.205 62.27 200.694 C 64.865 203.184 68.072 205.113 71.894 206.48 C 75.715 207.848 80.133 208.53 85.146 208.53 C 87.495 208.53 89.862 208.391 92.246 208.111 C 94.63 207.865 96.942 207.531 99.186 207.11 C 101.429 206.654 103.551 206.146 105.549 205.585 C 107.582 205.024 109.423 204.446 111.071 203.85 L 114.278 187.286 L 110.861 187.286 L 107.074 197.856 C 105.987 198.697 104.69 199.504 103.182 200.275 C 101.675 201.011 100.01 201.676 98.187 202.272 C 96.399 202.868 94.471 203.342 92.403 203.692 C 90.335 204.043 88.214 204.219 86.04 204.219 C 82.289 204.219 79.081 203.641 76.417 202.484 C 73.752 201.327 71.562 199.732 69.844 197.699 C 68.126 195.63 66.863 193.174 66.057 190.335 C 65.286 187.495 64.899 184.411 64.899 181.081 C 64.899 174.911 65.725 169.319 67.373 164.306 C 69.02 159.292 71.298 155.015 74.208 151.475 C 77.152 147.934 80.641 145.217 84.672 143.324 C 88.704 141.396 93.105 140.431 97.872 140.431 C 101.238 140.431 104.463 140.853 107.548 141.694 C 110.633 142.5 113.261 143.657 115.434 145.164 L 115.434 154.315 L 118.854 154.315 L 121.22 138.906 C 118.1 138.205 114.682 137.592 110.966 137.066 C 107.25 136.505 102.99 136.225 98.187 136.225 Z"/>
 </g>
</svg>
